X: 27106
T: Miss Mackenzie's
R: reel
M: 4/4
K: Fmajor
|:AcFA Bdfd|cAGF EGGB|AcFA Bdfd|1 cABG F3B:|2 cABG F4||
afef dfcf|afef g3b|afef dfcA|BdcA F4|
afef dfcf|afef g3b|afge fdcA|BdcA F4||

